X:198
T:My Darling Asleep
R:jig
M:6/8
L:1/8
K:Dmaj
|:fdd cAA|BGG A2G|FAA def|gfg eaa|
fdd cAA|BGG A2G|FAA def|gec d3:|
FAA Add|FAA BGG|FAA def|gfg eaa|
fdd cAA|BGG A2G|FAA def|gec d3:|

